X: 9
T: Mulqueeney's
Z: Sean Perry
S: https://thesession.org/tunes/66#setting50891
R: reel
M: 4/4
L: 1/8
K: Dmaj
F2 EG FD D/D/D|FD GE FD D/D/D|F2 EG FD D/D/D|FA Bc dB AG|
F2 EG FD D/D/D|FD GE FD D/D/D|F2 EG FD D/D/D|FA Bc d2 cd||
e3 e -efed|cdef g2 fg|e3 e -efed|cABc d2 cd|
e3 e -efed|cdef g2 fg|a~f3 g~e3|dfec dBAG||

%-------------------- TUNE SEPARATOR --------------------%

